build/img/icons/information.svg

<svg width="130" height="130" viewBox="0 0 130 130" fill="none" xmlns="http://www.w3.org/2000/svg">
<path fill-rule="evenodd" clip-rule="evenodd" d="M65 12.5002C36.005 12.5002 12.5 36.0052 12.5 65.0002C12.5 93.9951 36.005 117.5 65 117.5C93.9949 117.5 117.5 93.9951 117.5 65.0002C117.5 36.0052 93.9949 12.5002 65 12.5002ZM0.833313 65.0002C0.833313 29.5619 29.5617 0.833496 65 0.833496C100.438 0.833496 129.167 29.5619 129.167 65.0002C129.167 100.438 100.438 129.167 65 129.167C29.5617 129.167 0.833313 100.438 0.833313 65.0002Z" fill="#F3F3F3"/>
<path fill-rule="evenodd" clip-rule="evenodd" d="M59.1666 35.8333C59.1666 32.6117 61.7783 30 65 30H65.0583C68.2799 30 70.8916 32.6117 70.8916 35.8333C70.8916 39.055 68.2799 41.6667 65.0583 41.6667H65C61.7783 41.6667 59.1666 39.055 59.1666 35.8333Z" fill="#F3F3F3"/>
<path fill-rule="evenodd" clip-rule="evenodd" d="M47.5 59.1668C47.5 55.9452 50.1117 53.3335 53.3333 53.3335H65C68.2217 53.3335 70.8333 55.9452 70.8333 59.1668V88.3335C70.8333 91.5552 68.2217 94.1668 65 94.1668C61.7783 94.1668 59.1667 91.5552 59.1667 88.3335V65.0002H53.3333C50.1117 65.0002 47.5 62.3885 47.5 59.1668Z" fill="#F3F3F3"/>
<path fill-rule="evenodd" clip-rule="evenodd" d="M47.5 88.3333C47.5 85.1117 50.1117 82.5 53.3333 82.5H76.6667C79.8883 82.5 82.5 85.1117 82.5 88.3333C82.5 91.555 79.8883 94.1667 76.6667 94.1667H53.3333C50.1117 94.1667 47.5 91.555 47.5 88.3333Z" fill="#F3F3F3"/>
</svg>

<svg width="130" height="130" fill="none" xmlns="http://www.w3.org/2000/svg">
    <path fill-rule="evenodd" clip-rule="evenodd" d="M65 12.5c-28.995 0-52.5 23.505-52.5 52.5s23.505 52.5 52.5 52.5 52.5-23.505 52.5-52.5S93.995 12.5 65 12.5zM.833 65C.833 29.562 29.562.833 65 .833S129.167 29.562 129.167 65 100.438 129.167 65 129.167.833 100.438.833 65z" fill="#F3F3F3"/>
    <path fill-rule="evenodd" clip-rule="evenodd" d="M59.167 35.833A5.833 5.833 0 0 1 65 30h.058a5.833 5.833 0 0 1 0 11.667H65a5.833 5.833 0 0 1-5.833-5.834zM47.5 59.167a5.833 5.833 0 0 1 5.833-5.834H65a5.833 5.833 0 0 1 5.833 5.834v29.166a5.833 5.833 0 1 1-11.666 0V65h-5.834a5.833 5.833 0 0 1-5.833-5.833z" fill="#F3F3F3"/>
    <path fill-rule="evenodd" clip-rule="evenodd" d="M47.5 88.333a5.833 5.833 0 0 1 5.833-5.833h23.334a5.833 5.833 0 0 1 0 11.667H53.333a5.833 5.833 0 0 1-5.833-5.834z" fill="#F3F3F3"/>
</svg>
